assets/Bed/Flat/bed_flat.svg

<svg width="32" height="32" viewBox="0 0 32 32" fill="none" xmlns="http://www.w3.org/2000/svg">
<path d="M5.5 27L4 28V29.5C4 29.7761 4.22386 30 4.5 30H6.5C6.77614 30 7 29.7761 7 29.5V28L5.5 27Z" fill="#8D65C5"/>
<path d="M26.5 27L25 28V29.5C25 29.7761 25.2239 30 25.5 30H27.5C27.7761 30 28 29.7761 28 29.5V28L26.5 27Z" fill="#8D65C5"/>
<path d="M5 18C5 17.7358 5.2049 17.5195 5.46446 17.5012C5.48806 17.4996 5.51176 17.4983 5.53518 17.495L9 17L12.5 17.5H16V21L11 21.5L5.5 21C5.22386 21 5 20.7761 5 20.5V18Z" fill="#E1D8EC"/>
<path d="M5 11.5C5 10.6716 4.32843 10 3.5 10C2.67157 10 2 10.6716 2 11.5V27C2 27.5523 2.44771 28 3 28H29C29.5523 28 30 27.5523 30 27V21H5V11.5Z" fill="#533566"/>
<path d="M6.75 14C5.7835 14 5 14.7835 5 15.75V17C5 17.2762 5.22386 17.5 5.5 17.5H12.5C12.7761 17.5 13 17.2762 13 17V16.75C13 15.8043 12.2687 15.2505 11.3133 15.0151C11.2712 15.0047 11.2313 14.9942 11.1899 14.9816C10.7415 14.8453 7.9028 13.9967 6.75 14Z" fill="#3F5FFF"/>
<path d="M16.5 15.9962C15.6716 15.9962 15 16.6678 15 17.4962V21.4999C15 21.7761 15.2239 21.9999 15.5 21.9999H29.5C29.7761 21.9999 30 21.7761 30 21.4999V19.4962C30 17.5632 28.433 15.9962 26.5 15.9962H16.5Z" fill="#3F5FFF"/>
</svg>

<svg xmlns="http://www.w3.org/2000/svg" width="32" height="32" fill="none"><path fill="#8D65C5" d="M5.5 27 4 28v1.5a.5.5 0 0 0 .5.5h2a.5.5 0 0 0 .5-.5V28l-1.5-1ZM26.5 27 25 28v1.5a.5.5 0 0 0 .5.5h2a.5.5 0 0 0 .5-.5V28l-1.5-1Z"/><path fill="#E1D8EC" d="M5 18a.5.5 0 0 1 .464-.499c.024-.001.048-.003.071-.006L9 17l3.5.5H16V21l-5 .5-5.5-.5a.5.5 0 0 1-.5-.5V18Z"/><path fill="#533566" d="M5 11.5a1.5 1.5 0 0 0-3 0V27a1 1 0 0 0 1 1h26a1 1 0 0 0 1-1v-6H5v-9.5Z"/><path fill="#3F5FFF" d="M6.75 14A1.75 1.75 0 0 0 5 15.75V17a.5.5 0 0 0 .5.5h7a.5.5 0 0 0 .5-.5v-.25c0-.946-.731-1.5-1.687-1.735a2.363 2.363 0 0 1-.123-.033c-.448-.137-3.287-.985-4.44-.982ZM16.5 15.996a1.5 1.5 0 0 0-1.5 1.5V21.5a.5.5 0 0 0 .5.5h14a.5.5 0 0 0 .5-.5v-2.004a3.5 3.5 0 0 0-3.5-3.5h-10Z"/></svg>
